X: 19760
T: Jenny's Chickens
R: reel
M: 4/4
K: Bdorian
"Bm"~f3f- fe(ce)|f2fa "A"e(Ace)|"Bm"~f3f- fe(ce)|"D"fgaf "A"e(aga):|
"Bm"f~B3 f(Bce)|f~B3 "A"e(Ace)|"Bm"f~B3 f(Bce)|"D"((3fga) ga "A"e(Ace)|
"Bm"f~B3 F~B3|f~B3 "A"e(Ace)|"Bm"((3fga) ga (fe)(ce)|"D"fgaf "A"e(AcA)||
"Bm"B2bB aBgB|(3BBB fB "A"e(AcA)|"Bm"B2bB aBgB|"D"fgaf "A"e(AcA)|
"Bm"B2bB aBgB|(3BBB fB "A"e(AcA)|"Bm"((3fga) ga fece|"D"fgaf "A"eAce||

